ix/microphone-slash-1_bold.svg

<svg viewBox="0 0 24 24" fill="none" xmlns="http://www.w3.org/2000/svg" height="1em" width="1em">
  <path d="M17.6189 5.72L7.00891 16.33C6.27891 15.34 5.87891 14.13 5.87891 12.82V8.11C5.87891 6.27 6.69891 4.62 7.99891 3.5V7.64C7.99891 8.03 8.31891 8.35 8.69891 8.35C9.08891 8.35 9.40891 8.03 9.40891 7.64V2.57C9.86891 2.34 10.3589 2.18 10.8689 2.09V5.75C10.8689 6.15 11.1889 6.46 11.5789 6.46C11.9689 6.46 12.2889 6.15 12.2889 5.75V2C14.6789 2.11 16.7389 3.61 17.6189 5.72Z" fill="#292D32"/>
  <path d="M18.1202 8.87891V12.8189C18.1202 16.1889 15.3702 18.9389 12.0002 18.9389C11.8202 18.9389 11.6402 18.9289 11.4602 18.9089C11.3802 18.9089 11.3002 18.8989 11.2302 18.8889C11.1002 18.8689 10.9702 18.8489 10.8502 18.8289C10.8002 18.8289 10.7602 18.8089 10.7002 18.7989C10.5602 18.7689 10.4202 18.7289 10.2902 18.6889C10.0702 18.6289 9.86016 18.5489 9.66016 18.4689C9.53016 18.4189 9.41016 18.3689 9.29016 18.2989C9.26016 18.2889 9.24016 18.2689 9.21016 18.2589C9.11016 18.2089 9.01016 18.1589 8.91016 18.0889L18.1202 8.87891Z" fill="#292D32"/>
  <path d="M21.7497 11V13C21.7497 18.38 17.3797 22.75 11.9997 22.75C9.87969 22.75 7.84969 22.07 6.17969 20.82L7.25969 19.74C8.63969 20.72 10.2797 21.25 11.9997 21.25C16.5497 21.25 20.2497 17.55 20.2497 13V11C20.2497 10.59 20.5897 10.25 20.9997 10.25C21.4097 10.25 21.7497 10.59 21.7497 11Z" fill="#292D32"/>
  <path d="M21.7689 2.22891C21.4689 1.92891 20.9789 1.92891 20.6789 2.22891L2.22891 20.6889C1.92891 20.9889 1.92891 21.4789 2.22891 21.7789C2.37891 21.9189 2.56891 21.9989 2.76891 21.9989C2.96891 21.9989 3.15891 21.9189 3.30891 21.7689L21.7689 3.30891C22.0789 3.00891 22.0789 2.52891 21.7689 2.22891Z" fill="#292D32"/>
</svg>

<svg viewBox="0 0 24 24" fill="none" xmlns="http://www.w3.org/2000/svg" height="1em" width="1em">
  <path d="M17.619 5.72 7.009 16.33c-.73-.99-1.13-2.2-1.13-3.51V8.11c0-1.84.82-3.49 2.12-4.61v4.14c0 .39.32.71.7.71.39 0 .71-.32.71-.71V2.57c.46-.23.95-.39 1.46-.48v3.66c0 .4.32.71.71.71.39 0 .71-.31.71-.71V2c2.39.11 4.45 1.61 5.33 3.72Zm.501 3.159v3.94c0 3.37-2.75 6.12-6.12 6.12-.18 0-.36-.01-.54-.03-.08 0-.16-.01-.23-.02-.13-.02-.26-.04-.38-.06-.05 0-.09-.02-.15-.03-.14-.03-.28-.07-.41-.11a5.83 5.83 0 0 1-.63-.22c-.13-.05-.25-.1-.37-.17-.03-.01-.05-.03-.08-.04-.1-.05-.2-.1-.3-.17l9.21-9.21Z" fill="#292D32"/>
  <path d="M21.75 11v2c0 5.38-4.37 9.75-9.75 9.75-2.12 0-4.15-.68-5.82-1.93l1.08-1.08A8.15 8.15 0 0 0 12 21.25c4.55 0 8.25-3.7 8.25-8.25v-2c0-.41.34-.75.75-.75s.75.34.75.75Zm.019-8.771c-.3-.3-.79-.3-1.09 0l-18.45 18.46c-.3.3-.3.79 0 1.09a.758.758 0 0 0 1.08-.01l18.46-18.46c.31-.3.31-.78 0-1.08Z" fill="#292D32"/>
</svg>
